X: 1
T: Drunken Tinker, The
M: 4/4
L: 1/8
R: reel
K: Amix
EAAG EGDG|EA~A2 fAeA|EAAG EDEF|1 G2BG =cGBG:|2 GABd dBGB||
A2eA fAeA|fAeA dBGB|A2eA fAeA|d2BG DGBG|
A2eA fAeA|fAeA dBGB|~e3f ~g3e|d2BG DGBG||
